azure-patterns/svg-cloud-unlock.svg

<svg xmlns="http://www.w3.org/2000/svg" viewBox="0 0 97 97">
                                
                            
    <path d="M96.4218 55.9504C96.4218 43.4751 86.3139 33.3504 73.8218 33.3504C72.6465 33.3504 71.488 33.4344 70.363 33.6191C67.3911 24.5858 58.8615 18.0543 48.8208 18.0543C36.8324 18.0543 27.01 27.3562 26.1873 39.1432C24.5754 38.7234 22.8628 38.5051 21.1166 38.5051C10.0348 38.4883 1.03516 47.488 1.03516 58.5865C1.03516 68.5936 8.37259 76.9049 17.9599 78.4161L19.1353 78.5672C19.7901 78.6343 74.0065 78.5336 74.0065 78.5336C86.4147 78.4496 96.4218 68.3754 96.4218 55.9504Z" fill="#50E6FF"></path>
    <path d="M61.2295 40.6208C61.2295 33.7367 55.6047 28.1119 48.7206 28.1119C42.5417 28.1119 37.3871 32.6622 36.3964 38.5556H41.5175C41.8701 37.3467 42.5082 36.2385 43.4316 35.315C44.8588 33.8879 46.7393 33.1155 48.7206 33.1155C50.7019 33.1155 52.5824 33.9047 54.0096 35.315C55.4368 36.7422 56.2092 38.6228 56.2092 40.604C56.2092 41.007 56.2092 42.132 56.2092 43.6263H36.2285V68.7113H61.2295V45.2718C61.2295 43.0051 61.2295 41.1749 61.2295 40.6208Z" fill="#0078D4"></path>
    <path d="M48.7376 58.9057C50.5174 58.9057 51.9614 57.4617 51.9614 55.6819C51.9614 53.9021 50.5174 52.4581 48.7376 52.4581C46.9578 52.4581 45.5138 53.9021 45.5138 55.6819C45.497 57.4617 46.9578 58.9057 48.7376 58.9057Z" fill="#50E6FF"></path>
</svg>

<svg xmlns="http://www.w3.org/2000/svg" viewBox="0 0 97 97"><path d="M96.422 55.95c0-12.475-10.108-22.6-22.6-22.6-1.175 0-2.334.084-3.459.27-2.972-9.034-11.502-15.566-21.542-15.566-11.989 0-21.811 9.302-22.634 21.09a20.172 20.172 0 0 0-5.07-.639c-11.082-.017-20.082 8.983-20.082 20.081 0 10.008 7.338 18.319 16.925 19.83l1.175.151c.655.067 54.871-.033 54.871-.033 12.409-.084 22.416-10.159 22.416-22.584z" fill="#50E6FF"/><path d="M61.23 40.62c0-6.883-5.625-12.508-12.51-12.508-6.178 0-11.333 4.55-12.324 10.444h5.121a7.536 7.536 0 0 1 1.915-3.241 7.433 7.433 0 0 1 5.289-2.2c1.98 0 3.861.79 5.289 2.2a7.433 7.433 0 0 1 2.2 5.289v3.022H36.227v25.085H61.23v-23.44-4.65z" fill="#0078D4"/><path d="M48.738 58.906a3.225 3.225 0 1 0-3.224-3.224c-.017 1.78 1.444 3.224 3.224 3.224z" fill="#50E6FF"/></svg>
